X:1
T:Mass "Puisque j'ay perdu" - Lasso
T:James Gibb editions
T:#
%%score [ 1 2 3 4 ]
L:1/8
Q:1/4=200
M:none
K:C
V:1 treble nm="Soprano" snm="Soprano"
V:2 treble nm="Alto" snm="Alto"
V:3 treble-8 nm="Tenor" snm="Tenor"
V:4 bass nm="Bass" snm="Bass"
V:1
"^Missa \"Puisque j'ay perdu\"" z8"^Kyrie""^Orlando di Lasso\n(1530-94)" G8 | G4 G4 A8 | c8 B8 | %3
w: Ky-|ri- e e-|lei- son,|
 A8 G4 G4 | A4 (c8 B2 A2) | B8 z4 c4 | B4 A4 (d6 c2 | B4) (A6 G2 G4- | G4 ^F4) G8 | z4 G4 G4 G4 | %10
w: Ky- ri- e|e- lei\- * *|son, Ky-|ri- e e\- *|* lei\- * *|* * son,|Ky- ri- e|
 A8 c8 | (B4 A2 G2 A4) A4 | G4 G4 A4 (c4- | c4 B2 A2) B8 | z4 c4 B4 A4 | %15
w: e- lei-|son, * * * Ky-|ri- e e- lei\-|* * * son,|Ky- ri- e|
[Q:1/4=198] (d6[Q:1/4=195] c2[Q:1/4=193] B4)[Q:1/4=190] (A4- | %16
w: e\- * * lei\-|
[Q:1/4=189] A2[Q:1/4=187] G2[Q:1/4=184] G8[Q:1/4=181] ^F4) |[Q:1/4=180] G16 || %18
w: |son.|
[Q:1/4=200] z4 (G6 A2 B2 c2 | d4) c4 B8 | A8 A4 A4- | A4 A4 (G6 F2) | (E6 DC D8) | C8 z4 G4 | %24
w: Chri\- * * *|* ste e-|lei- son, Chri\-|* ste e\- *|lei\- * * *|son, Chri-|
 A4 (c8 B4) | (A6 GF E2 F2 G2 E2 | F2 E2 C2 D2 E2 F2 G2 A2 | B2 c2 d6 c2 c4- | c4 B4) c8 | %29
w: ste e\- *|lei\- * * * * * *|||* * son,|
 z4 G4 A4 c4 |[Q:1/4=198] (B4[Q:1/4=196] A4[Q:1/4=193] G4[Q:1/4=190] ^F4 |[Q:1/4=184] G16) | %32
w: Chri- ste e-|lei\- * * *||
[Q:1/4=180] ^F16 ||[Q:1/4=180][Q:1/4=200][Q:1/4=180][Q:1/4=180][Q:1/4=180] z16 | z8 z4 A4 | %35
w: son.||Ky-|
 A4 A4 (E6 F2 | G4) G4 D4 d4 | d4 d4 (A6 B2 | %38
w: ri- e e\- *|* lei- son, Ky-|ri- e e\- *|
[Q:1/4=200][Q:1/4=200][Q:1/4=200][Q:1/4=200] c4 c4 (G6 A2 | B2 c2 d6) c2 c4- | c4 B4) c4 z2 c2 | %41
w: * lei- son, *|* * * e- lei\-|* * son, Ky-|
 c4 c4 (G6 A2 | B4 B4 A4 z2 A2 | A4 A4 (E6 F2 | G4) G4 D8 | z4 D4 F4 G4 | A4 c4 B4) (A4- | %47
w: ri- e e\- *|* lei- son, Ky-|ri- e e\- *|* lei- son,|Ky- ri- e|e\- * * lei\-|
 A2 G2 G8 ^F4) | G16 | z4 A4 A4 A4 | (E6 F2 G4) G4 | D8 z4 D4 | %52
w: |son,|Ky- ri- e|e\- * * lei-|son, Ky-|
 F4 G4[Q:1/4=198] (A4[Q:1/4=195] c4- | %53
w: ri- e e\- *|
[Q:1/4=192] c2[Q:1/4=191] A2[Q:1/4=188] B4[Q:1/4=185] c4)[Q:1/4=182] (A4- | %54
w: * * * * lei\-|
[Q:1/4=180] A2[Q:1/4=179] G2[Q:1/4=175] G8[Q:1/4=171] ^F4) |[Q:1/4=170] G16 |][Q:1/4=130] x24 || %57
w: |son.||
[Q:1/4=200] z8"^Gloria" G6 G2 | G4 G4 A8 | c8 B4 A4 | B8 z4 c4 | B4 A4 (d6 c2 | B4) (A6 G2 G4- | %63
w: Et in|ter- ra pax|ho- mi- ni-|bus bo-|nae vo- lun\- *|* ta\- * *|
 G4 ^F4) G8- | G4 G4 (A8- | A4 c6 BA) B4 | A16 | z4 G8 ^F4 | ^F8 G8- | G8 A8- | A8 z4 A4 | %71
w: * * tis,|* lau- da\-|* * * * mus|te,|a- do-|ra- mus|* te,|* glo-|
 G4 A4 (_B4 A4- | A2 G2 G8) ^F4 | G8 E8- | E4 E4 E8 | F8 F4 G4 | (A8 G6 F2 | E6 DC D8) | C8 z4 G4 | %79
w: ri- fi- ca\- *|* * * mus|te. Gra\-|* ti- as|a- gi- mus|ti\- * *||bi pro-|
 A4 c8 B4 | (A6 GF E4) G4 | (A2 B2 c2 A2 B2 c2 d4- | d2 c2) (c8 B4) | c4 G6 G2 G4 | G8 E4 c4- | %85
w: pter ma- gnam|glo\- * * * ri-|am * * * * * *|* * tu\- *|am. Do- mi- ne|De- us, Rex|
 c4 A4 (d6 c2 | B2 A2 G2 A2 B2 c2 d4- | d4 ^c4) d4 B4- | B4 B4 (c6 B2 | A2 G2 A4) G4 c4 | %90
w: * coe- le\- *||* * stis, De\-|* us Pa\- *|* * * ter o-|
 (B2 c2 A6 G2 G4- | G4) ^F4 G8 | G6 G2 G4 d4- | d4 (A6 B2 c4) | B4 A4 G6 G2 | G8 A8- | A8 _B8 | %97
w: mni\- * * * *|* po- tens.|Do- mi- ne Fi\-|* li * *|u- ni- ge- ni-|te Je\-|* su|
 G16 | ^F16 ||"^Duo" G8 A4 B4 | c8 B8 | z4 A4 B4 c4 | d8 c8 | z4 B4 c4 d4 | e8 d8 | z4 c8 B4 | %106
w: Chri-|ste.|Do- mi- ne|De- us,|Do- mi- ne|De- us,|Do- mi- ne|De- us,|A- gnus|
 A8 G8 | z4 A8 G4 | (F6 G2 A8) | D4 d8 c4 | _B8 A8 | z4 A6 A2 c4 | A8 E8 | z4 A6 A2 c4 | A8 G8 | %115
w: De- i,|A- gnus|De\- * *|i, A- gnus|De- i,|Fi- li- us|Pa- tris,|Fi- li- us|Pa- tris,|
 z4 B6 B2 d4 | B4 A4 z4 c4- | c2 c2 e4 (c6 B2 | e2 d2 c2 B2 c2 B2 A2 G2 | A2 G2 G8 ^F4) | G16 || %121
w: Fi- li- us|Pa- tris, Fi\-|* li- us Pa\- *|||tris.|
 z4 G4 G4 G4 | A8 c8 | B8 A8 | G8 z4 c4 | B4 A4 (d6 c2 | B4) (A6 G2 G4- | G4 ^F4) G8 | z4 E4 G8 | %129
w: Qui tol- lis|pec- ca-|ta mun-|di, mi-|se- re- re *|* no\- * *|* * bis.|Qui tol-|
 A4 A4 _B4 A4 | G8 ^F8 | G12 B4 | B8 e8- | e8 c8 | d8 d8 | c8 _B8 | A16 | ^F8 z4 G4- | G4 c8 A4 | %139
w: lis pec- ca- ta|mun- di,|su- sci-|pe de\-|* pre-|ca- ti-|o- nem|no-|stram. Qui|* se- des|
 A4 e6 e2 e4 | ^c8 d8 | B16 | c8 A8 | A4 (A8 ^G2 ^F2 | ^G8 A8) | ^F8 z8 | z16 | z16 | z16 | %149
w: ad de- xte- ram|Pa- tris,|mi-|se- re-|re no\- * *||bis.||||
 z8 z4 G4 | (A6 GA B4) G4 | (c2 d2 e2 d2 c2 B2 B2 AG | A4) A4 B4 B4 | c8 A4 c4- | c4 c8 c4 | B16 | %156
w: Tu|so\- * * * lus|Do\- * * * * * * * *|* mi- nus, tu|so- lus al-|* tis- si-|mus.|
 A16 | A8 G8- | G16 | ^F8 z4 G4 | (B2 A2 B2 c2 d6 c2 | B2 A2 B4) A4 (d4- | d2 c2 c8) B4 | %163
w: Je-|su Chri\-||ste, cum|san\- * * * * *|* * * cto Spi\-|* * * ri-|
 c4 z2 c2 c4 c4 | (G6 A2 B4) B4 | A4 z2 A2 A4 A4 | (E6 F2 G4) G4 | D8 F8 | E8 z4 e4 | %169
w: tu in glo- ri-|a * * De-|i, in glo- ri-|a * * De-|i Pa-|tris, in|
 e4 e4 (B6 c2 | d4) (A6 G2 F4) | E4 A4 G8- | G8 z4 d4 | d4 d4 A8 | z4 G4 G4 G4 | %175
w: glo- ri- a *|* De\- * *|i Pa- tris,|* in|glo- ri- a,|in glo- ri-|
 (D6 E2 F4)[Q:1/4=198] G4 |[Q:1/4=194] A4[Q:1/4=191] c4[Q:1/4=187] B4[Q:1/4=184] (A4- | %177
w: a * * De-|i Pa- tris. A\-|
[Q:1/4=181] A2[Q:1/4=180] G2[Q:1/4=176] G8[Q:1/4=171] ^F4) |[Q:1/4=170] G16 |][Q:1/4=130] x16 || %180
w: |men.||
[Q:1/4=200] z8"^Credo" G8 | G8 A8 | c8 B8 | A8 G4 B4 | c12 c4 | c8 B8 | A4 (c8 B2 A2 | %187
w: Pa-|trem o-|mni- po-|ten- tem, fa-|cto- rem|coe- li|et ter\- * *|
 B4) B4 G6 G2 | G4 G4 G4 A4- | A4 G4 G8 | B6 B2 c4 d4 | e4 A4 d4 B2 B2 | A4 G4 G4 ^F4 | G16 | z16 | %195
w: * rae, vi- si-|bi- li- um o\-|* mni- um|et in- vi- si-|bi- li- um, et in-|vi- si- bi- li-|um.||
 z8 A8- | A4 B4 (c8 | B8 A8 | ^F6 F2 F4 G4 | A4 A4 G4 (A4- | A2 G2 G8) ^F4 | G8 c8- | c4 c4 d4 d4 | %203
w: Je\-|* sum Chri\-|* stum,|Fi- li- um De-|i u- ni- ge\-|* * * ni-|tum, et|* ex Pa- tre|
 e8 d8 | ^c8 c4 c4- | c4 d4 e4 f4- | f4 e4 d8 | z4 B4 c4 A4 | G2 A2 B2 c2 d2 c2 c4- | c4 B4) c8 | %210
w: na- tum|an- te o\-|* mni- a sae\-|* cu- la,|De- um de|De\- * * * * * *|* * o,|
 z4 c4 d4 c4 | B4 c4 G4 G4 | A4 (c8 B2 A2 | B2 c2 d4) G8 | z4 E4 F4 E4 | D4 E4 z4 E4 | F4 E4 D8 | %217
w: lu- men de|lu- mi- ne, De-|um ve\- * *|* * * rum|de De- o|ve- ro, de-|De- o ve-|
 E8 G6 G2 | A4 A4 (G6 F2 | E6 DC E4 D4) | C8 z4 G4 | A4 c8 B4 | A8 (G6 A2 | B4) (A6 G2 G4- | %224
w: ro, ge- ni-|tum non fa\- *||ctum, con-|sub- stan- ti-|a- lem *|* Pa\- * *|
 G4 ^F4) G4 E4- | E4 D4 E4 E4 | D8 G8- | G4 G4 ^F8 | z4 G4 A4 _B4 | A4 G2 ^F2 G4 G4 | %230
w: * * tri, per|* quem o- mni-|a fa\-|* cta sunt.|Qui pro- pter|nos ho- mi- nes, et|
 A4 _B4 A4 G2 ^F2 | G4 G4 A8 | G4 F4 c4 _B4 | A16 | z4[Q:1/4=198] c4[Q:1/4=194] G8 | %235
w: pro- pter no- stram sa-|lu- tem de-|scen- dit de coe-|lis,|de- scen-|
[Q:1/4=189] G4[Q:1/4=186] G4[Q:1/4=182] c8 |[Q:1/4=180] B16 ||[Q:1/4=200] e16 | d8 c8 | B8 A8 | %240
w: dit de coe-|lis.|Et|in- car-|na- tus|
 B16 | G8 G8- | G4 A4 A8 | ^G16 | ^G16 | A8 A8 | A8 A4 ^F4- | F4 G4 E8 | F16- | F8 A8- | A8 F8- | %251
w: est|de Spi\-|* ri- tu|san-|cto|ex Ma-|ri- a Vir\-|* gi- ne,|et|* ho\-|* mo|
 F8 E8- | E8 E8 | D16 || z16 | z16 | z16 | z16 | z16 | z16 | z16 | z16 | z16 | z16 | z16 | z16 | %266
w: * fa\-|* ctus|est.|||||||||||||
 z16 | z16 | z16 | z16 | z16 | z16 | d12 B4 | G4 (c6 B2 A2 G2 | F2 G2 A2 B2 c2 A2 B2 c2 | %275
w: ||||||Et re-|sur- re\- * * *||
 A2 G2 c8 B4) | c4 G6 G2 G4 | A8 G8 | z4 B4 d8 | A4 A4 c8 | G8 z4 B4 | d8 A4 A4 | %282
w: |xit ter- ti- a|di- e|se- cun-|dum scri- ptu-|ras, se-|cun- dum scri-|
 (c2 B2 G2 A2 B2 c2 d4- | d4 ^c4) d8 | A8 A4 B4- | B4 B4 c4 d4- | d4 (e6 d2 c2 B2 | A8) B8- | %288
w: ptu\- * * * * * *|* * ras.|Et a- scen\-|* dit in coe\-|* lum, * * *|* se\-|
 B8 B8 | z4 G4 d6 B2 | c4 A4 G8 | B16 | B4 B4 c6 c2 | A4 A4 B6 B2 | G4 G4 A6 A2 | F8 E8 | %296
w: * det|ad de- xte-|ram Pa- tris,|se-|det ad de- xte-|ram, ad de- xte-|ram, ad de- xte-|ram Pa-|
 A4 A4 G6 G2 | G8 A8 | B16 || z8 G4 G2 G2 | A4 c4 B4 A4 | G4 z2 G2 G2 G2 A4 | G4 ^F4 G4 G4 | %303
w: tris, ad de- xte-|ram Pa-|tris.|Et i- te-|rum ven- tu- rus|est cum glo- ri- a,|ju- di- ca- re|
 z8 z4 (D2 E2 | F2 G2 A2 B2 c2 A2 B2 c2 | d2 G2 B2 c2 d8 | c8) B8 | G16 | F12 F4 | F16- | F16 | %311
w: vi\- *|||* vos|et|mor- tu-|os:||
 z8 G8- | G4 A4 ^F8 | G4 c4 B4 A4 | (d6 c2 B4 A4- | A2 G2 G8 ^F4) | G16 | G4 G4 G6 G2 | G8 G4 G4 | %319
w: cu\-|* ius re-|gni non e- rit|fi\- * * *||nis.|Et in Spi- ri-|tum san- ctum|
 G6 G2 A8 | A4 A4 A4 A4 | G8 G8 | B4 B4 B4 B4 | d4 d4 d8 | c4 A4 d8 | G8 z4 A4- | A4 G4 F8 | %327
w: Do- mi- num,|et vi- vi- fi-|can- tem,|qui ex Pa- tre|Fi- li- o-|que pro- ce-|dit, qui|* cum Pa-|
 E4 E4 F4 G4 | A8 z8 | z4 A8 A4 | _B4 A4 G8 | ^F4 F4 G8 | A8 B4 c4 | (B8 A8) | B4 G4 G4 G4- | %335
w: tre et Fi- li-|o|si- mul|a- do- ra-|tur et con-|glo- ri- fi-|ca\- *|tur, qui lo- cu\-|
 G4 F4 E8 | E4 F4 E8 | D16 ||[M:3/1][Q:1/4=400] E8 F4 E4 G8 | A8 c8 B4 A4 | %340
w: * tus est|per Pro- phe-|tas.|Et u- nam san-|ctam ca- tho- li-|
[M:3/1][Q:1/4=400][Q:1/4=400][Q:1/4=400][Q:1/4=400] B8 G8 E4 E4 | E4 E4 E8 E8 | D16 D8 | E24 || %344
w: cam et a- po-|sto- li- cam Ec-|cle- si-|am.|
[Q:1/4=200] F8 F4 F4 | (E2 F2 G2 A2 B4) c4 | A4 B4 c8 | %347
w: Con- fi- te-|or * * * * u-|num ba- pti-|
[Q:1/4=200][Q:1/4=200][Q:1/4=200][Q:1/4=200] B4 B4 c4 c4 | G4 (A6 G2 G4- | G4) F4 G4 G4 | G8 G8 | %351
w: sma in re- mis-|si- o\- * *|* nem pec- ca-|to- rum.|
 F16 | F16 | E16 | E16 | e4 d4 ^c4 d4 | G4 E4 A8 | A8 (G6 F2 | E8) D8- | D8 z4 E4 | %360
w: Et|ex-|pe-|cto|re- sur- re- cti-|o- nem mor-|tu- o\- *|* rum.|* Et|
 (F2 G2 A2 B2 c4) c4 | B4 (d6 c2 c4- | c4 B4) c4 c4 | c8 G4 G4 | (G2 A2 B2 c2 d8) | A4 A4 A8 | %366
w: vi\- * * * * tam|ven- tu\- * *|* * ri, et|vi- tam ven-|tu\- * * * *|ri, et vi-|
 E4 A4 G8 | D8 z4 d4 | d8 A4 A4 | c4 G4 z4 G4 | G4 D8 F4 | E4 E4 z4 (G2 A2 | %372
w: tam ven- tu-|ri, et|vi- tam ven-|tu- ri, et|vi- tam ven-|tu- ri, sae\- *|
 B2 c2 d8)[Q:1/4=198] G4 | %373
w: * * * cu-|
[Q:1/4=195] (F2[Q:1/4=193] G2[Q:1/4=192] A2[Q:1/4=190] F2[Q:1/4=187] _B4)[Q:1/4=184] (A4- | %374
w: li, * * * * A\-|
[Q:1/4=181] A2[Q:1/4=180] G2[Q:1/4=176] G8[Q:1/4=171] ^F4) |[Q:1/4=170] G16 |]"^Sanctus" (G16- | %377
w: |men.|San\-|
 G16 | A16- | A16 | c16- | c16) | (B16 | A16) | (G8 A4 c4- | c4 B2 A2) B8 | e12 e4 | d16 | d16 | %389
w: |||||ctus,||San\- * *|* * * ctus,|Do- mi-|nus|De-|
 B16 | G12 E4 | E16 | F12 F4 | F8 F8 | F4 (F6 G2 A2 B2 | c2 d2 e2 f2 e2 d2 c2 B2 | %396
w: us|Sa- ba-|oth,|Do- mi-|nus De-|us Sa\- * * *||
 A2 B2 c2 B2 A2 G2 F4- | F4 E2 D2 E4) E4 | D16 || E16 | G16 | c16 | c16 | c16 | A16 | F16 | %406
w: |* * * * ba-|oth.|Ple-|ni|sunt|coe-|li|et|ter-|
 E8 c8- | c4 c4 c8- | c4 (c8 B2 A2 | B8) c4 G4- | G4 G4 A8- | %411
w: ra glo\-|* ri- a|* tu\- * *|* a, glo\-|* ri- a|
[Q:1/4=197] A8[Q:1/4=193] z4[Q:1/4=190] (d4- | %412
w: * tu\-|
[Q:1/4=188] d4[Q:1/4=186] ^c2[Q:1/4=185] B2[Q:1/4=182] c8) |[Q:1/4=180] d16 |] %414
w: |a.|
[Q:1/4=180]"^Trium vocum"[Q:1/4=200][Q:1/4=180][Q:1/4=180][Q:1/4=180] z16 | d8 B4 (d4- | %416
w: |Be- ne di\-|
 d2 c2 B2 A2 G2 F2 E2 D2 | E4) C4 c8 | A4 (c6 B2 A4) | %419
w: |* ctus, Be-|ne- di\- * *|
[Q:1/4=200][Q:1/4=200][Q:1/4=200][Q:1/4=200] (G2 F2 E2 D2 E2 F2 G2 A2 | B4) d4 (d2 c2 B2 A2 | %421
w: ctus * * * * * * *|* qui ve\- * * *|
 B2 c2 d6 c2 c4- | c4 B4) c8 | z4 c4 B4 A4 | (d6 c2 B4) (A4- | A2 G2 B6 c2 d4) | c4 B4 z4 G4 | %427
w: |* * nit|in no- mi-|ne * * Do\-||mi- ni, in|
 F4 E4 A8 | (G6 F2 E4) D4 | (G6 F2 E4 D2 C2 | D8) z4 c4 | B4 A4 G8 | z4 c4 B4 A4 | %433
w: no- mi- ne|Do\- * * mi-|ni, * * * *|* in|no- mi- ne,|in no- mi-|
 (d6 c2 B4) (A4- | A2 G2 G8) ^F4 | G8 z4 G4 | F4 E4 A8 | z4 c4 B4 A4 | %438
w: ne * * Do\-|* * * mi-|ni, in|no- mi- ne,|in no- mi-|
[Q:1/4=198] (d6[Q:1/4=195] c2[Q:1/4=193] B4)[Q:1/4=190] (A4- | %439
w: ne * * Do\-|
[Q:1/4=189] A2[Q:1/4=187] G2[Q:1/4=184] G8)[Q:1/4=181] ^F4 |[Q:1/4=180] G16 |] %441
w: * * * mi-|ni.|
[M:3/1][Q:1/4=360][Q:1/4=400][Q:1/4=360][Q:1/4=360][Q:1/4=360] G8 A8 c8 | B4 B4 A8 G8 | z8 z8 G8 | %444
w: O- san- na|in ex- cel- sis,|O-|
 A8 c8 B4 B4 | A8 G8 z8 | x8 z16 |[Q:1/4=400][Q:1/4=400][Q:1/4=400][Q:1/4=400] z8 G8 A8 | %448
w: san- na in ex-|cel- sis,||O- san-|
 c8 B8 c8- | c8 B8 A8 | G16 A8 | c8 B8 A8 | G16 F8 | z8 G8 A8 | c8 B8 A8 | (G12 D4 F8) | E8 G8 A8 | %457
w: na in ex\-|* cel- sis,|O- san-|na in ex-|cel- sis,|O- san-|na in ex-|cel\- * *|sis, O- san-|
 c8 B8 A8 | (G4 c8 B4) c8 | z8 z8 G8 | A8 c8 B4 B4 | A8 G8 z8 | c8 d8 f8 | e8 (d12 c4) | %464
w: na in ex-|cel\- * * sis,|O-|san- na in ex-|cel- sis,|O- san- na|in ex\- *|
 (c16 B8) ||[Q:1/4=200] c4 G4 A4 c4 | B4 A4 (G2 E2 ^F4 | %467
w: cel\- *|sis, O- san- na|in ex- cel\- * *|
[Q:1/4=200][Q:1/4=200][Q:1/4=200][Q:1/4=200] G6 =F2) E8 | z8 z4 D4 | E4 G4 ^F4 G4 | %470
w: * * sis,|O-|san- na in ex-|
 (E2 =F2 G2 E2 ^F4) G4 | z4 G4 A4 c4 | B4 A4 G4 G4 | z4 c4 d4 f4 | (e2 d2 c2 B2 A4) B4 | %475
w: cel\- * * * * sis,|O- san- na|in ex- cel- sis,|O- san- na|in * * * * ex-|
 c8 d4 z2 G2 | A4 c4 B4 (A4- |[Q:1/4=197] A2 G2)[Q:1/4=193] (G8[Q:1/4=186] ^F4)[Q:1/4=190] | %478
w: cel- sis, O-|san- na in ex\-|* * cel\- *|
[Q:1/4=182] G16-[Q:1/4=178][Q:1/4=173] |[Q:1/4=170] G16 |]"^Agnus Dei" z16 | z16 | z8 G8- | %483
w: sis.||||A\-|
 G8 (A8 | c8) (B8 | A6 G2 A8) | G4 G8 (D2 E2 | F2 G2) (A6 G2 G4- | G2 ^FE F4 G8) | G16 | %490
w: * gnus|* De\-||i, A- gnus *|* * De\- * *||i,|
 z4 G4 (G6 F2 | E2 D2 E4) D4 E4 | G4 C4 z4 c4 | c8 B4 c4 | A4 A4 G8 | G4 G4 A8 | B4 (d6 c2 c4- | %497
w: qui tol\- *|* * * lis pec-|ca- ta, qui|tol- lis pec-|ca- ta mun-|di, pec- ca-|ta mun\- * *|
 c4 B4) c4 c4 | c4 c4 (G6 A2 | B4) B4 A8 | z4 A4 A4 A4 | (E6 F2 G4) G4 | D4 d4 d4 d4 | A8 z4 G4 | %504
w: * * di, mi-|se- re- re *|* no- bis,|mi- se- re-|re * * no-|bis, mi- se- re-|re, mi-|
 G4 G4 (D6 E2 | F4) G4 A4 c4 | B4 (A6 G2 G4- | G4) ^F4 G8 | G8 z4 A4 | A4 A4 (E6 F2 | G4 G4 D4 D4 | %511
w: se- re- re *|* no- bis, mi-|se- re\- * *|* re no-|bis, mi-|se- re- re *|* no- bis, mi-|
 F4 G4[Q:1/4=199] (A2[Q:1/4=197] B2[Q:1/4=195] c2[Q:1/4=194] A2 | %512
w: se- re- re * * *|
[Q:1/4=192] B4)[Q:1/4=188] c6[Q:1/4=185] B2[Q:1/4=182] A4- | %513
w: * no\- * *|
[Q:1/4=180] A2[Q:1/4=179] G2[Q:1/4=175] G8[Q:1/4=171] ^F4) |[Q:1/4=170] G16 |] %515
w: |bis.|
V:2
 D8 E4 E4 | (D2 C2 D2 E2 F8) | E8 D4 F4 | F4 E6 C2 (G4- | G4 F4) G8- | G8 G8- | G4 (F2 E2) G4 F4 | %7
w: Ky- ri- e|e\- * * * *|lei- son, Ky-|ri- e e- lei\-|* * son,|* Ky\-|* ri\- * e e-|
 (F6 E2 D4 C4 | D8) B,4 D4 | E4 E4 (D2 C2 D2 E2 | F4 F4 E4 G4- | G4 F8 E4- | E4 D4 (E4 C4) | %13
w: lei\- * * *|* son, Ky-|ri- e e\- * * *|* lei- son, Ky\-|* ri- e|* e- lei\- *|
 G8 z4 G4 | G4 G8 F2 E2) | (G4 A4 G4 F4 | E8 D8) | B,16 || D12 G,4 | G16 | E8 F4 F4- | %21
w: son, Ky-|ri- e e\- *|lei\- * * *||son.|Chri- ste|e-|lei- son, Chri\-|
 F4 F4 E4 D4 | (C2 D2 E2 F2 G4) G4 | F4 (E6 DC D2 E2 | F8 E4 D4 | F4 (E6 C2) D4 | C4 E6 D2 C4 | %27
w: * ste e- lei-|son, * * * * Chri-|ste e\- * * * *|* lei- son,|Chri- ste * e-|lei\- * * *|
 B,4 A,2 B,2 C2 D2 E2 F2 | G8 E6 DC | E4 D4 C2 D2 E2 F2) | G4 C8 A,4 | B,4 (D8 ^C4) | D16 || %33
w: |||son, Chri- ste|e- lei\- *|son.|
 G8 G4 G4 | (D6 E2 F4) F4 | C8 z4 G4 | E4 D4 (G8 | F6 ED C4) F4 | E4 E8 D4 | G4 (A6 G2 F2 E2) | %40
w: Ky- ri- e|e\- * * lei-|son, Ky-|ri- e e\-|* * * * lei-|son, Ky- ri-|e e\- * * *|
 G8 E8 | z4 E4 E4 E4 | D4 B,4 D4 D4 | (A,6 B,2 C2 D2 E4 | B,4 C4 B,2 G,2 D4) | %45
w: lei- son,|Ky- ri- e|e- lei- son, e-|lei\- * * * *||
 C4 B,4 (D2 C2 D2 E2 | F4 G8 F4 | E4 D2 C2) D4 z2 D2 | D4 D4 (B,6 A,G, | A,4) F8 C4 | z4 E4 E4 E4 | %51
w: son, e- lei\- * * *||* * * son, Ky-|ri- e e\- * *|* lei- son,|Ky- ri- e|
 (B,2 A,2 B,2 C2 D8) | (D6 E2 F4 E4- | E2 F2 G8 F2 E2 | D4 E4 D8) | B,16 |] x24 || D6 D2 E4 E4 | %58
w: e\- * * * *|lei\- * * *|||son.||Et in ter- ra|
 (D2 C2 D2 E2 F8) | G8 G4 ^F4 | G8 (G8- | G4 F2 E2 G4) A4 | (G4 ^F2 E2 D4) E4- | %63
w: pax * * * *|ho- mi- ni-|buus bo\-|* * * * nae|vo\- * * * lun\-|
 E4 D4 (B,2 A,2 B,2 C2 | D4) D4 F8 | (E6 F2 G8) | F4 F4 E4 D4 | D4 C4 D8- | D8 E8- | E4 E4 F8 | %70
w: * ta- tis, * * *|* lau- da-|mus * *|te, be- ne- di-|ci- mus te,|* a\-|* do- ra-|
 F8 E4 E4 | (E2 D2 E2 F2 G4) E4 | (F2 E2 D2 C2 D4) D4 | B,16 | z4 C8 C4 | C4 C4 D4 E4 | %76
w: mus te, glo-|ri\- * * * * fi-|ca\- * * * * mus|te.|Gra- ti-|as a- gi- mus|
 (F6 C2 E4 D4) | C8 z4 G4 | F4 E8 D4 | F4 F4 E4 D4 | C4 (E6 DC D2 E2 | F4) E4 G4 A4 | G8 G4 G4 | %83
w: ti\- * * *|bi pro-|pter ma- gnam|glo- ri- am tu-|am, pro\- * * * *|* pter ma- gnam|glo- ri- am|
 E8 E8- | E8 z8 | z16 | z16 | z8 z4 G4- | G4 G4 (E8 | F8) E4 G4 | (G4 F2 E2 D4) C4 | %91
w: tu- am.||||De\-|* us Pa\-|* ter o-|mni\- * * * po-|
 (D6 C2 B,4) E4- | E2 E2 E4 (D6 E2 | F2 G2 F8) E4 | G4 F4 E4 E4 | (D2 C2 D2 E2 F8) | F16 | E8 D8 | %98
w: tens. * * Do\-|* mi- ne Fi\- *|* * * li|u- ni- ge- ni-|te * * * *|Je-|su Chri-|
 D16 || z16 | C8 D4 E4 | F8 E8 | z4 D4 E4 F4 | G8 F8 | z4 E4 F4 G4 | A8 G8 | z4 F8 E4 | D8 C8 | %108
w: ste.||Do- mi- ne|De- us,|Do- mi- ne|De- us,|Do- mi- ne|De- us,|A- gnus|De- i,|
 z4 D8 C4 | _B,8 A,8 | z4 D6 D2 F4 | D8 A,8 | z4 A,6 A,2 C4 | (A,6 B,2 C2 D2 E2 C2 | %114
w: A- gnus|De- i,|Fi- li- us|Pa- tris,|Fi- li- us|Pa\- * * * * *|
 D2 E2 F2 D2 E2 B,2 C4) | G,8 z4 B,4- | B,2 B,2 D4 B,4 A,4 | z4 C6 C2 E4 | %118
w: |tris, Fi\-|* li- us Pa- tris,|Fi- li- us|
 (C2 B,2 C2 D2 E2 D2 C2 B,2 | C2 B,2 A,2 G,2 A,8) | G,16 || D8 E8 | F4 F4 G8 | G4 (G6 FE F4) | %124
w: Pa\- * * * * * * *||tris.|Qui tol-|lis pec- ca-|ta mun\- * * *|
 E8 z4 A4 | (G4 F2 E2 G4) F4- | F4 F4 (E2 D2 C2 B,2 | D8 B,8 | z4 C4 E8 | F4 E4 G4 F4 | D8 D4 D4- | %131
w: di, mi-|se\- * * * re\-|* re no\- * * *|* bis.|Qui tol-|lis pec- ca- ta|mun- di, su\-|
 D4 D4 D4 G4- | G4 G4 G8- | G8 E8 | F4 F8 F4 | E8 D4 D4- | D2 A,2 D8 ^C4) | D8 B,8 | E8 C4 F4 | %139
w: * sci- pe, su\-|* sci- pe|* de-|pre- ca- ti-|o- nem no\-||stram. Qui|se- des ad|
 E6 E2 G8 | E8 A,8 | D16 | E8 F8 | E16- | E8 ^C8 | D8 z8 | z16 | z16 | z16 | z4 D4 (E6 DE | %150
w: de- xte- ram|Pa- tris,|mi-|se- re-|re|* no-|bis.||||Tu so\- * *|
 F4) D4 (G2 F2 E2 D2 | C2 B,2 C2 D2 E2 D2 G4- | G4) ^F4 G4 G4 | E8 F4 A4 | A4 A4 G8- | G16 | E16 | %157
w: * lus Do\- * * *||* mi- nus, tu|so- lus al-|tis- si- mus,||Je-|
 (F8 D8) | E16 | D8 D8 | G16- | G8 F4 (A4- | A2 G2 F2 E2 G4) G4 | E8 z4 E4 | E4 E4 (D2 C2 D2 E2 | %165
w: su *|Chri-|ste, cum|san\-|* cto Spi\-|* * * * * ri-|tu in|glo- ri- a * * *|
 F2 D2 F4) F4 E4 | z4 E4 E4 E4 | B,8 (A,6 B,2 | C2 B,2 C2 D2 E2 D2 E2 F2 | G8) D4 G4 | %170
w: * * * De- i,|in glo- ri-|a De\- *||* i Pa-|
 F4 (F6 E2 D4) | C4 E4 E4 E4 | (B,2 A,2 B,2 C2 D2 C2 D2 E2 | F6 ED C4) F4 | E4 (E6 D2 C4) | %175
w: tris, A\- * *|men, in glo- ri-|a * * * * * * *|* * * * De-|i Pa\- * *|
 B,4 D4 D6 D2 | F4 G8 F4 | E4 C4 D8 | B,16 |] x16 || D8 E4 E4 | (D2 C2 D2 E2 F4) F4 | %182
w: tris, in glo- ri-|a De- i|Pa- tris, A-|men.||Pa- trem o-|mni\- * * * * po-|
 (E2 D2 E2 F2 G2 D2 G4- | G2 ^FE F4) D4 G4 | A4 A4 G8- | G4 G4 G4 (G4- | G2 FE F4) G8- | G8 E6 E2 | %188
w: ten\- * * * * * *|* * * * tem, fa-|cto- rem coe\-|* li et ter\-|* * * * rae,|* vi- si-|
 E4 E4 D4 F4- | F4 D4 D4 D4- | D2 D2 G4 E4 G4- | G4 F4 D4 G2 G2 | E4 D4 C4 A,4 | (D6 C2 B,8) | %194
w: bi- li- um o\-|* mni- um et|* in- vi- si- bi\-|* li- um, et in-|vi- si- bi- li-|um. * *|
 z16 | z4 (G8 ^F2 E2 | ^F8) G8- | G8 E8 | D8 D6 D2 | F4 F4 D4 D4- | D4 C4 D4 D4 | E4 E8 E4 | %202
w: |Je\- * *|* sum|* Chri-|stum, Fi- li-|um De- i u\-|* ni- ge- ni-|tum, et ex|
 E8 D8 | C8 A,8 | E8 E4 E4- | E4 F4 G4 C4- | C4 G4 G8 | z4 G4 E4 F4 | (E2 F2 G2 E2 F2 E2 E2 DC | %209
w: Pa- tre|na- tum|an- te o\-|* mni- a sae\-|* cu- la,|De- um de|De\- * * * * * * * *|
 D8) C4 E4 | A,4 E4 (D2 B,2 E4) | D4 E4 (E8 | F8) G4 (G4- | G2 F2 D4) E8 | C8 D4 G,4 | G,8 C4 G,4 | %216
w: * o, lu-|men de lu\- * *|mi- ne, De\-|* um ve\-|* * * rum|de De- o|ve- ro, de-|
 A,4 C8 B,4 | C8 E6 E2 | F4 F4 E4 D4 | z4 E4 G4 G4 | F4 E8 D4 | F8 E4 G4- | G4 F4 E4 D4 | %223
w: De- o ve-|ro, ge- ni-|tum non fa- ctum,|con- sub- stan-|ti- a- lem|Pa- tri, con\-|* sub- stan- ti-|
 D4 F4 (E4 D2 C2 | D8) B,4 C4- | C4 B,4 C4 C4 | (B,6 C2 D4) E4- | E4 E4 D4 D4 | E8 F4 F4 | %229
w: a- lem Pa\- * *|* tri, per|* quem o- mni-|a * * fa\-|* cta sunt. Qui|pro- pter nos|
 F2 F2 D6 D2 E4 | F4 F4 F2 F2 D4- | D4 E4 F8 | E4 D4 G8 | E8 F4 F4 | E16 | E4 E4 G8 | G16 || G16 | %238
w: ho- mi- nes, et pro-|pter no- stram sa- lu\-|* tem de-|scen- dit de|coe- lis, de-|scen-|dit de coe-|lis.|Et|
 G4 G4 (E2 D2 E2 F2 | G2 D2 G8) ^F4 | G16 | E8 D8- | D4 F4 F8 | E16 | E16 | F12 E4 | F8 E4 A,4- | %247
w: in- car- na\- * * *|* * * tus|est|de Spi\-|* ri- tu|san-|cto|ex Ma-|ri- a Vir\-|
 A,4 B,4 C8 | D16 | (C8 F8) | (F8 D8) | C16 | C16 | B,16 || z16 | z16 | z16 | z16 | z16 | z16 | %260
w: * gi- ne,|et|ho\- *|mo *|fa-|ctus|est.|||||||
 z16 | z16 | z16 | z16 | z16 | z16 | z16 | z16 | z16 | z16 | z16 | z16 | z8 G8 | E4 C4 (F6 E2 | %274
w: ||||||||||||Et|re- sur- re\- *|
 D2 E2 F2 D2 E2 F2 G2 E2 | F2 E2 E2 DC D8) | C4 E6 D2 E4 | F8 E4 E4 | G8 D4 D4 | F12 E4 | %280
w: ||xit ter- ti- a|di- e se-|cun- dum scri-|ptu- ras,|
 z4 E4 G8 | D4 (D2 E2 F2 G2 F4) | (E2 D2 E2 F2 G2 F2 E2 D2 | E8) D8 | z4 D8 D4 | E8 E4 F4 | %286
w: se- cun-|dum scri\- * * * *|ptu\- * * * * * * *|* ras.|Et a-|scen- dit in|
 G8 (A6 G2 | F2 E2 D4) G8- | G8 D8 | z4 E4 F6 G2 | E4 F4 E8 | G16 | G8 z4 E4 | F6 F2 D4 D4 | %294
w: coe- lum, *|* * * se\-|* det|ad de- xte-|ram Pa- tris,|se-|det ad|de- xte- ram, ad|
 E6 E2 C4 C4 | D6 D2 C4 (A,2 B,2 | C2 B,2 C2 D2 E6 B,2 | C2 G,2 G8 ^F4) | G16 || E4 E2 E2 D4 E4 | %300
w: de- xte- ram, ad|de- xte- ram Pa\- *|||tris.|Et i- te- rum ven-|
 F4 E4 G4 F4 | E6 E2 D4 D4- | D2 D2 D4 E4 (C2 D2 | E2 F2 G2 A2 F4) G4 | (D2 E2 F2 D2 E2 F2 G4) | %305
w: tu- rus est cum|glo- ri- a, ju\-|* di- ca- re vi\- *|* * * * * vos,|vi\- * * * * * *|
 G4 G8 F4- | F4 E4 G8 | (E16 | D16) | D12 D4 | C16 | z8 E8 | E8 D8 | (E2 D2 E2 F2 G4) F4 | %314
w: vos et mor\-|* tu- os,|et||mor- tu-|os:|cu-|ius re-|gni * * * * non|
 F4 (D6 E2 F4) | D16 | D4 D4 E4 E4- | E2 E2 E8 E4 | D4 D6 D2 D4- | D4 D4 F4 F4 | F4 F8 F4 | %321
w: e- rit * *|fi-|nis. Et in Spi\-|* ri- tum san-|ctum Do- mi- num,|* et vi- vi-|fi- can- tem,|
 E4 E4 E4 E4 | G4 G4 G8 | D4 D4 F8- | F16 | E8 z4 F4- | F4 E4 D8 | G,4 C4 D4 B,4 | A,8 z8 | %329
w: qui ex Pa- tre|Fi- li- o-|que pro- ce\-||dit, qui|* cum Pa-|tre et Fi- li-|o|
 z4 F8 F4 | F4 F4 E8 | D4 A,4 D4 E4 | F8 G4 (A4- | A2 G2 G8 ^F4) | G4 D8 E4 | E4 D4 B,4 C4- | %336
w: si- mul|a- do- ra-|tur et con- glo-|ri- fi- ca\-||tur, qui lo-|cu- tus est per|
 C4 C4 C8 | B,16 ||[M:3/1] C8 C4 C4 D8 | F8 G8 G4 F4 |[M:3/1] G8 E8 C4 C4 | C4 C4 B,8 C8 | %342
w: * Pro- phe-|tas.|Et u- nam san-|ctam ca- tho- li-|cam et a- po-|sto- li- cam Ec-|
 A,16 B,8 | C24 || C8 D4 C4 | C4 C4 D4 E4 | D8 C4 A,4 | D4 D4 E4 E4- | E4 E4 E8 | A,8 (E8 | %350
w: cle- si-|am.|Con- fi- te-|or u- num ba-|pti- sma in|re- mis- si- o\-|* nem pec-|ca- to\-|
 D8) E8 | C16 | D16 | C16 | C16 | G4 F4 E4 F4 | E4 C4 C8- | C4 C4 (C4 B,2 A,2 | B,8) B,8- | %359
w: * rum.|Et|ex-|pe-|cto|re- sur- re- cti-|o- nem mor\-|* tu- o\- * *|* rum.|
 B,8 z4 C4 | C4 F4 G8- | G8 (E6 F2 | G8) E8 | z4 E4 E8 | D4 (D2 E2 F2 G2 F4) | F8 E8 | z4 E4 E8 | %367
w: * Et|vi- tam ven\-|* tu\- *|* ri,|et vi-|tam ven\- * * * *|tu- ri,|et vi-|
 (B,6 A,2 B,2 C2 D2 E2 | F6 ED C4) F4 | E16 | D4 G4 F4 D4 | C4 A,4 G,8 | z4 A,4 D4 D4 | D16- | %374
w: tam * * * * *|* * * * ven-|tu-|ri, ven- tu- ri|sae- cu- li,|sae- cu- li,|A\-|
 D16 | B,16 |] z8 (D8- | D8 E8 | F12 E4 | D4 C4) D4 (A,4- | A,2 B,2 C2 D2 E8- | E4 D4 C4 A,4) | %382
w: |men.|San\-|||* * ctus, San\-|||
 D4 (G,2 A,2 B,2 C2 D2 E2 | F2 G2 F8 E4- | E4 D4 E4 C4) | G8 z4 G4- | G4 G4 G8- | G8 (G8- | %388
w: ctus, San\- * * * * *|||ctus Do\-|* mi- nus|* De\-|
 G4 ^F2 E2 F8) | G16 | E12 C4 | C8 z4 C4- | C4 C4 (C8 | D8) D8 | D4 (D6 E2 F2 D2 | E4) C4 C4 A,4 | %396
w: |us|Sa- ba-|oth, Do\-|* mi- nus|* De-|us Sa\- * * *|* ba- oth, Do-|
 C4 A,4 C8 | C4 C8 C4 | B,16 || C16 | E16 | G16 | A16 | G16 | F16 | D16 | C8 E8- | E4 F4 E8 | %408
w: mi- nus De-|us Sa- ba-|oth.|Ple-|ni|sunt|coe-|li|et|ter-|ra glo\-|* ri- a|
 (E6 F2 G8- | G8) E8- | E8 F8- | F4 F4 A8 | A16 | ^F16 |] z16 | z16 | G8 E4 (G4- | %417
w: tu\- * *|* a,|* glo\-|* ri- a|tu-|a.|||Be- ne- di\-|
 G2 F2 E2 D2 C2 B,2 A,2 G,2 | F,6 G,2 A,2 B,2 C2 D2 | E2 F2 G6 F2 E4) | (D2 C2 B,2 A,2 G,4) G,4 | %421
w: |||ctus * * * * qui|
 (G6 F2 E4 D2 C2 | D8) C4 E4 | D4 E4 F8 | z8 z4 F4 | E4 D4 (G6 F2 | E4) D8 E4 | C8 z4 F4 | %428
w: ve\- * * * *|* nit in|no- mi- ne,|in|no- mi- ne *|* Do- mi-|ni, in|
 E4 D4 (G6 F2 | E4 (D6 C2 C4- | C4) B,4 C8 | z4 F4 E4 D4 | C8 z4 C4 | B,4 A,4 D8 | %434
w: no- mi- ne *|* Do\- * *|* mi- ni,|in no- mi-|ne, in|no- mi- ne|
 B,6 A,G, A,4) A,4 | G,4 B,4 A,4 B,4 | C16- | C8 z4 C4 | B,4 A,4 D8 | (B,6 A,G, A,4) A,4 | G,16 |] %441
w: Do\- * * * mi-|ni, in no- mi-|ne,|* in|no- mi- ne|Do\- * * * mi-|ni.|
[M:3/1] z8 z8 C8 | D8 F8 E4 E4 | D8 C8 E8 | F8 G8 G8 | F8 E8 D8 | z8 C8 D8 | F8 E8 C4 (F4- | %448
w: O-|san- na in ex-|cel- sis, O-|san- na in|ex- cel- sis,|O- san-|na in ex- cel\-|
 F4 E4 G8 A8) | G16 C8- | C8 D8 F8 | E8 G8 (C8- | C4 D4 E8 D8) | C8 E8 F8 | E8 D8 F8 | (E8 D8) C8 | %456
w: |sis, O\-|* san- na|in ex- cel\-||sis, O- san-|na in ex-|cel\- * sis,|
 z8 z8 C8- | C8 D8 F8 | E8 D8 C8 | G,8 G,8 G,8 | (C12 A,4 D8) | F8 E8 D8 | E4 C4 F8 F8 | %463
w: O\-|* san- na|in ex- cel-|sis, O- san-|na * *|in ex- cel-|sis, O- san- na|
 G8 G8 (E8- | E4 F4 G16) || E4 E4 (F6 EF | G4) C8 A,4 | E4 D4 C8 | z4 C4 E4 G4 | %469
w: in ex- cel\-||sis, O- san\- * *|* na in|ex- cel- sis,|O- san- na|
 (G2 F2 E2 D2 C4) D4 | (C6 B,2 D8) | G,8 C8 | D4 F4 E4 D4 | (E4 C6 B,2 B,2 A,B,) | C4 E4 ^F4 G4 | %475
w: in * * * * ex-|cel\- * *|sis, O-|san- na in ex-|cel\- * * * * *|sis, O- san- na|
 E8 D4 (E4- | E2 D2 E2 F2 G2 D2 F4) | E4 D4 E4 D4 | B,4 E4 E8 | D16 |] D16 | (E8 G8) | (F8 E8) | %483
w: in ex- cel\-||sis, O- san- na|in ex- cel-|sis.|A-|gnus *|De\- *|
 D4 D4 F4 (E4- | E2 D2 E2 F2 G2 D2 G4- | G4 F2 E2 F8 | E8 D4 B,4 | (C6 D2 E4) C4 | D4 D8 B,4 | %489
w: i, A- gnus De\-|||* i, A-|gnus * * De-|i, A- gnus|
 E8 D8) | E16 | z4 G4 (G6 F2 | E2 D2 E4) D4 E4 | E16 | C4 (F6 ED E4) | D4 E4 F4 E4 | G16- | G8 E8 | %498
w: De\- *|i,|qui tol\- *|* * * lis pec-|ca-|ta mun\- * * *|di, pec- ca- ta|mun\-|* di,|
 z4 E4 E4 E4 | (D2 C2 D2 E2 F8) | F8 E8 | z4 C4 D4 D4 | (G2 F2 D2 E2 F2 G2) (F4- | F2 C2 F4 E6 D2 | %504
w: mi- se- re-|re * * * *|no- bis,|mi- se- re-|re * * * * * no\-||
 C4 B,6 A,2 B,2 C2) | D4 E4 F4 G4- | G4 F4 E4 C4 | z4 D4 D4 D4 | (B,6 A,G, A,4) F4- | F4 E4 z4 E4 | %510
w: |bis, mi- se- re\-|* re no- bis,|mi- se- re-|re * * * no\-|* bis, mi-|
 E4 E4 (B,2 A,2 B,2 C2 | D6 E2 F4) E4 | G4 G8 F4 | D4 E4 D8 | B,16 |] %515
w: se- re- re * * *|* * * no-|bis, mi- se-|re- re no-|bis.|
V:3
 G8 B4 c4 | (B2 A2 B2 G2 d4) (c4- | c2 B2 G2 A2 B2 c2 d4- | d2 cB c2 d2 e4 d4) | c4 c4 d8 | %5
w: Ky- ri- e|e\- * * * * lei\-|||son, Ky- ri-|
 d4 d4 e8 | d4 z2 c2 B4 A4 | (d6 c2 B4 A2 G2 | A4) A4 G4 B4 | c4 c4 (B2 A2 B2 G2 | d4 (c6 d2 e4) | %11
w: e e- lei-|son, Ky- ri- e|e\- * * * *|* lei- son, Ky-|ri- e e\- * * *|* lei\- * *|
 d8 c8- | c4 G4 c4 e4- | e4 d2 c2) (d8 | e8) d4 z2 c2 | B4 A4 (d6 c2 | B4 c4) A8 | G16 || %18
w: son, Ky\-|* ri- e e\-|* * * lei\-|* son, Ky-|ri- e e\- *|* * lei-|son.|
 (G6 A2 B2 c2 d4) | B4 (e6 d2) (d4- | d2 ^cB c4) d8 | =c4 c8 B4 | (c4 A4) G4 G4 | (A4 c8 B4 | %24
w: Chri\- * * * *|ste e\- * lei\-|* * * * son,|Chri- ste e-|lei\- * son, e-|lei\- * *|
 A6 GF) G8 | z4 A4 A4 G4 | (A2 G2 A2 B2 c2 d2 e4) | d4 f4 e4 c4 | (d8 c4 A4) | G8 z4 c4 | %30
w: * * * son,|Chri- ste e-|lei\- * * * * * *|son, Chri- ste e-|lei\- * *|son, Chri-|
 d4 f4 (e4 d4- | d2 c2 B2 A2 G8) | A16 || z16 | z4 d4 d4 d4 | (A6 B2 c2 G2 c4- | c4 B2 A2 B4) B4 | %37
w: ste e- lei\- *||son.||Ky- ri- e|e\- * * * *|* * * * lei-|
 A4 A6 B2 c4- | c4 (G6 A2 B2 c2 | d2 e2 f6 e2 d2 c2) | d8 c8 | z4 c4 c4 c4 | B4 G4 (A6 B2 | %43
w: son, Ky- ri- e|* e\- * * *||lei- son,|Ky- ri- e|e- lei- son, *|
 c4) z2 c2 c4 c4 | (G6 A2 B4) B4 | A4 z2 G2 A4 B4 | (c4 e4) (d6 c2 | B4 A2 G2 A8) | G8 z4 d4 | %49
w: * Ky- ri- e|e\- * * lei-|son, Ky- ri- e|e\- * lei\- *||son, Ky-|
 d4 d4 (A6 B2 | c4) c4 B8 | z4 G4 B4 B4 | A4 B4 c4 z2 A2 | c4 d4 (e4 d2 c2 | B4 c4) A8 | G16 |] %56
w: ri- e e\- *|* lei- son,|Ky- ri- e|e- lei- son, Ky-|ri- e e\- * *|* * lei-|son.|
 G2 A2 c2 B2 c2 d2 B2 d2 c2 B2 B4 || G8 B4 (c4- | c2 BA B2 G2 d4) c4 | e8 d8 | d4 d4 e8 | %61
w: Glo- ri- a in ex- cel- sis De\- * * o:|Et in ter\-|* * * * * * ra|pax ho-|mi- ni- bus|
 z4 c4 B4 A4 | (d6 c2 B4 A2 G2 | A4) A4 G8 | B8 c8 | c8 d8 | d8 c4 A4- | A2 B2 G4 A8- | A8 c8- | %69
w: bo- nae vo-|lun\- * * * *|* ta- tis,|lau- da-|mus te,|be- ne- di\-|* ci- mus te,|* a\-|
 c4 c4 c8 | d8 c8 | c8 d4 c4- | c4 B4 A8 | G8 G8- | G4 G4 G8 | A8 A4 c4 | c12 B4 | z8 G8 | %78
w: * do- ra-|mus te,|glo- ri- fi\-|* ca- mus|te. Gra\-|* ti- as|a- gi- mus|ti- bi|pro-|
 A4 c8 B4 | A6 A2 G8 | z4 A8 G4 | c8 d4 f4 | e4 e4 d8 | c8 z4 c4- | c2 c2 c4 c8 | A4 d8 B4 | %86
w: pter ma- gnam|glo- ri- am,|pro- pter|ma- gnam glo-|ri- am tu-|am. Do\-|* mi- ne De-|us, Rex coe-|
 (e6 dc d2 e2 f2 d2 | e8) d4 d4- | d4 e8 c4- | c4 c4 c4 (e4- | e4 d2 c2 B4 A2 G2 | A4) A4 G4 c4- | %92
w: le\- * * * * * *|* stis, De\-|* us Pa\-|* ter o- mni\-||* po- tens. Do\-|
 c2 c2 c4 B8 | A4 d4 c8 | (d6 c2 B2 G2 c4- | c4) B4 c8 | c8 d8 | (c8 _B8) | A16 || z16 | z16 | %101
w: * mi- ne Fi-|li u- ni-|ge\- * * * *|* ni- te|Je- su|Chri\- *|ste.|||
 z16 | z16 | z16 | z16 | z16 | z16 | z16 | z16 | z16 | z16 | z16 | z16 | z16 | z16 | z16 | z16 | %117
w: ||||||||||||||||
 z16 | z16 | z16 | z16 || B12 c4- | c4 d4 e8 | d4 d4 d8 | B4 z2 c2 B4 A4 | d4 z2 c2 B4 A4 | %126
w: ||||Qui tol\-|* lis pec-|ca- ta mun-|di, mi- se- re-|re, mi- se- re-|
 d4 (c6 B2 A2 G2 | A8 G8 | z4 G4 c8 | c4 c4 d4 d4 | B8 A8 | B12 d4 | d8 c8- | c8 G8 | _B12 B4 | %135
w: re no\- * * *|* bis.|Qui tol-|lis pec- ca- ta|mun- di,|su- sci-|pe de\-|* pre-|ca- ti-|
 G16 | F8 E8 | D8 d8 | c4 G4 A4 c4- | c2 c2 c4 B8 | A8) ^F8 | z4 G8 G4 | (G8 d8) | c4 (c8 B2 A2 | %144
w: o-|nem no-|stram. Qui|se- des ad de\-|* xte- ram Pa\-|* tris,|mi- se-|re\- *|re no\- * *|
 B8) A4 A4- | A4 A4 B8 | G8 c8 | A4 (d6 c2 B2 A2 | B2 c2 d6 c2 c4- | c4 B4) c8 | z16 | z16 | %152
w: * bis. Quo\-|* ni- am|tu so-|lus san\- * * *||* * ctus,|||
 z4 d8 e4- | e4 c8 f4 | (e6 d2 e4) e4 | d16 | ^c16 | (d8 B8) | (B8 c8) | A4 A4 (B2 A2 B2 c2 | %160
w: tu so\-|* lus al-|tis\- * * si-|mus,|Je-|su *|Chri\- *|ste, cum san\- * * *|
 d6 c2 B2 A2 B2 c2 | d8 d4 (f4- | f2 e2 d2 c2 d4) d4 | c8 z4 c4 | c4 c4 B4 G4 | A4 d8 c4 | c8 B8 | %167
w: |* cto Spi\-|* * * * * ri-|tu in|glo- ri- a De-|i Pa- tris,|A- men,|
 z4 d4 d4 d4 | A8 c8 | B8 z4 d4 | d4 d4 A4 A4- | A2 B2 c8) G4 | d4 d4 B8 | A8 z4 c4 | %174
w: in glo- ri-|a De-|i, in|glo- ri- a De\-|* * * i|Pa- tris, A-|men, in|
 c4 c4 B4 (G4- | G2 A2 B2 G2 A4) B4 | c4 e4 (d6 c2 | B4 A2 G2 A8) | G16 |] G2 E2 F2 D2 E2 G2 A4 || %180
w: glo- ri- a De\-|* * * * * i|Pa- tris, A\- *||men.|Cre- do in u- num De- um:|
 G8 B4 c4 | B4 B4 d8 | c4 A4 d4 d4 | d8 B4 d4 | f4 f4 e8- | e8 d4 d4 | (c6 d2 e4 d2 c2 | %187
w: Pa- trem o-|mni- po- ten-|tem, fa- cto- rem|coe- li, fa-|cto- rem coe\-|* li et|ter\- * * * *|
 d4) d4 c6 c2 | c4 c4 B4 c4- | c4 B4 B8 | G6 G2 A4 B4 | c4 d4 B4 d2 d2 | c4 B4 e4 d4 | B8 z4 d4- | %194
w: * rae, vi- si-|bi- li- um o\-|* mni- um|et in- vi- si-|bi- li- um, et in-|vi- si- bi- li-|um. Et|
 d4 d4 c4 A4 | c4 c4 d8 | d8 e4 (e4- | e2 d2 d6 ^cB c4) | A4 A6 A2 B4 | c4 d4 B4 A4 | %200
w: * in u- num|Do- mi- num|Je- sum Chri\-||stum Fi- li- um|De- i u- ni-|
 (B4 A2 G2 A4) A4 | c8 G8- | G4 G4 G4 G4 | G8 ^F8 | A12 A4 | A4 A4 c4 A4- | A4 c4 (B2 A2 B2 c2 | %207
w: ge\- * * * ni-|tum, et|* ex Pa- tre|na- tum|an- te|o- mni- a sae\-|* cu- la, * * *|
 d8) z8 | z16 | z4 G4 A4 G4 | ^F4 G4 G8- | G8 c8- | c4 A4 e8 | d4 B4 c4 B4 | A4 G4 z4 c4 | %215
w: ||lu- men de|lu- mi- ne,|* De\-|* um ve-|rum de De- o|ve- ro, de-|
 (B6 c2 A2 B2 c2 Bc | d4) G4 G8- | G4 G4 c8 | c4 c8 B4 | c4 A4 z4 G4 | A4 c8 B4 | %221
w: De\- * * * * * *|* o ve\-|* ro, ge-|ni- tum non|fa- ctum, con-|sub- stan- ti-|
 (A6 B2 c2 A2 d4) | (d6 c2 B6 A2 | G4) (c6 B2 A2 G2 | A8) G8 | G4 G4 G4 G4 | G8 B8 | c8 A4 A4 | %228
w: a\- * * * *|lem * * *|* Pa\- * * *|* tri,|per quem o- mni-|a fa-|cta sunt. Qui|
 c12 d4 | c4 B2 A2 B4 c4 | c4 d4 c4 B2 A2 | B4 c8 c4 | c4 A4 e4 (d4- | d2 ^cB c4) d4 d4 | G8 c8 | %235
w: pro- pter|nos ho- mi- nes, et|pro- pter no- stram sa-|lu- tem de-|scen- dit de coe\-|* * * * lis, de-|scen- dit|
 z4 c4 e8 | d16 || c16 | B8 c8 | d8 d8 | d16 | c8 B8- | B4 c4 d8 | B16 | B16 | d12 ^c4 | %246
w: de coe-|lis.|Et|in- car-|na- tus|est|de Spi\-|* ri- tu|san-|cto|ex Ma-|
 d8 ^c4 d4- | d4 d4 G8 | _B16 | (A8 c8) | (d8 A8) | A16 | G16 | G16 ||"^Duo" d12 c4 | B4 A4 G6 G2 | %256
w: ri- a Vir\-|* gi- ne,|et|ho\- *|mo *|fa-|ctus|est.|Cru- ci-|fi- xus e- ti-|
 F4 A4 G8- | G4 G4 z4 B4 | d6 d2 A4 B4 | c4 G8 E4 | G6 G2 D4 E4 | (F2 G2 A2 B2 c2 B2 c4- | %262
w: am pro no\-|* bis, sub|Pon- ti- o Pi-|la- to, sub|Pon- ti- o Pi-|la\- * * * * * *|
 c4) A4 z4 (G4- | G2 A2 B2 c2 d8) | A8 (c6 B2 | A4) F4 E4 F4 | D8 z4 (d4- | d2 c2 B2 A2 G4) ^F4 | %268
w: * to. Pas\-||sus et *|* se- pul- tus|est, pas\-|* * * * * sus|
 G4 G4 (c6 B2 | A2 G2 F6 D2 F2 G2 | A4) (G6 ^FE F4) | G16 | z16 | z16 | z16 | z16 | z4 c6 B2 c4 | %277
w: et se- pul\- *||* tus * * *|est.|||||Ter- ti- a|
 (F2 G2 A2 B2 c8) | G8 z4 B4 | d8 A4 A4 | c8 G8 | z4 B4 d8 | (A3 B) c4 (G3 A _B4 | A8) D8- | %284
w: di\- * * * *|e se-|cun- dum scri-|ptu- ras,|se- cun-|dum * scri- ptu\- * *|* ras.|
 D8 z8 | z16 | z16 | z8 G8- | G8 G8 | z4 c4 _B6 G2 | A4 F4 c8 | G16 | E4 E4 A6 A2 | F4 F4 G6 G2 | %294
w: |||Se\-|* det|ad de- xte-|ram Pa- tris,|se-|det ad de- xte-|ram, ad de- xte-|
 E4 E4 F6 F2 | (D2 E2 F2 G2 A2 B2 c4) | (F2 G2 A2 B2 c2 B2 c2 d2 | e8 d8) | G16 || c4 c2 c2 B4 c4 | %300
w: ram, ad de- xte-|ram * * * * * *|Pa\- * * * * * * *||tris.|Et i- te- rum ven-|
 c4 c4 d6 d2 | B2 B2 c4 B4 A4 | B4 A4 (c2 B2 G2 A2 | B2 c2 d2 e2 c4) B4 | z8 z4 (G2 A2 | %305
w: tu- rus est cum|glo- ri- a, ju- di-|ca- re vi\- * * *|* * * * * vos,|vi\- *|
 B2 c2 d6 cB A2 G2 | A2 B2 c4) d8 | (c12 B4 | A16) | _B12 B4 | A16 | z8 c8 | c8 A8 | c4 G4 (d6 cB | %314
w: |* * * vos|et *||mor- tu-|os:|cu-|ius re-|gni non e\- * *|
 A4) (B6 G2 c4) | (B8 A8) | B8 c4 c4 | c6 c2 c8 | B4 B4 B6 B2 | B8 d4 d4 | d4 d4 c8 | c8 B4 B4 | %322
w: * rit * *|fi\- *|nis. Et in|Spi- ri- tum|san- ctum Do- mi-|num, et vi-|vi- fi- can-|tem, qui ex|
 e4 e4 d4 d4 | B8 A4 A4- | A4 (c8 B4) | c8 z4 c4- | c4 c4 (A2 G2 A2 B2 | c4) G4 z8 | z4 c4 B4 c4 | %329
w: Pa- tre Fi- li-|o- que pro\-|* ce\- *|dit, qui|* cum Pa\- * * *|* tre|et Fi- li-|
 d4 c8 c4 | d4 c4 c8 | A4 d4 B4 c4- | c4 d8 f4 | d16 | G4 B8 c4 | c4 A4 G4 G4- | G4 A4 G8 | G16 || %338
w: o si- mul|a- do- ra-|tur et con- glo\-|* ri- fi-|ca-|tur, qui lo-|cu- tus est per|* Pro- phe-|tas.|
[M:3/1] G8 A4 A4 B8 | c8 e8 d4 c4 |[M:3/1][K:treble-8] d8 c8 G4 G4 | A4 A4 G8 G8 | ^F16 G8 | G24 || %344
w: Et u- nam san-|ctam ca- tho- li-|cam et a- po-|sto- li- cam Ec-|cle- si-|am.|
 A8 A4 A4 | G4 E4 G8 | ^F4 (G6 FE F4) | G4 G8 G4 | c4 c4 (B2 A2 B2 c2 | d4) d4 B4 c4- | c4 B4 c8 | %351
w: Con- fi- te-|or u- num|ba- pti\- * * *|sma in re-|mis- si- o\- * * *|* nem pec- ca\-|* to- rum.|
 A16 | _B16 | G16 | G16 | c4 A4 A4 A4 | c4 G4 F8- | F4 C4 (E6 F2 | G8) G8- | G8 z4 G4 | %360
w: Et|ex-|pe-|cto|re- sur- re- cti-|o- nem mor\-|* tu- o\- *|* rum.|* Et|
 (A2 B2 c2 d2 e8) | d4 B4 (c8 | d8) c8 | z4 c4 c8 | B4 G4 A8 | d4 d4 c8- | c4 c4 B4 (G4- | %367
w: vi\- * * * *|tam ven- tu\-|* ri,|et vi-|tam ven- tu-|ri, et vi\-|* tam ven- tu\-|
 G2 A2 B2 c2 d2 G2 B4) | A8 z4 c4 | c8 G4 G4 | _B8 A4 (A4- | A2 B2 c2 d2 e4) e4 | d8 _B8 | %373
w: |ri, et|vi- tam ven-|tu- ri sae\-|* * * * * cu-|li, A-|
 A4 (F6 G2 A2 F2 | _B8 A8) | G16 |] (G12 A4 | B6 AB c4 B4 | d8 c6 B2 | A4 G4 F8) | E4 (A8 G2 F2 | %381
w: men, A\- * * *||men.|San\- *||||ctus, San\- * *|
 E2 F2 G8 ^F4 | G2 A2 B2 c2 d2 G2 B2 c2 | d8) c8 | z4 (G4 c4 e4- | e4 d2 c2) d8 | c12 c4 | B16 | %388
w: ||* ctus,|San\- * *|* * * ctus|Do- mi-|nus|
 A16 | d16 | c12 G4 | G16 | A12 A4 | _B4 B8 B4 | _B4 A4 A8 | A12 E4 | F4 F8 A4 | G6 G2 G8- | G16 || %399
w: De-|us|Sa- ba-|oth,|Do- mi-|nus De- us|Sa- ba- oth,|Do- mi-|nus De- us|Sa- ba- oth.||
 G16 | c16 | e16 | f16 | e16 | c16 | _B16 | G16 | A12 A4 | c8 d8- | d8 c8 | c12 c4 | c8 (f8- | %412
w: Ple-|ni|sunt|coe-|li|et|ter-|ra|glo- ri-|a tu\-|* a,|glo- ri-|a tu\-|
 f4 e2 d2 e8) | d16 |] d8 B4 (d4- | d2 c2 B2 A2 G8) | G8 z8 | c8 A4 (c4- | c2 B2 A2 G2 F8) | c16 | %420
w: |a.|Be- ne- di\-||ctus,|Be- ne- di\-||ctus|
 (G6 A2 B2 c2 d4) | (G8 A8) | G8 z4 c4 | B4 A4 (d6 c2 | B2 A2 G4) d8 | c4 G4 z8 | z4 G4 F4 E4 | %427
w: qui * * * *|ve\- *|nit in|no- mi- ne *|* * * Do-|mi- ni,|in no- mi-|
 A8 F6 F2 | G16- | G16 | z4 G4 A8 | G4 F4 c4 B4 | A4 z2 A2 G4 F4 | D4 (D6 E2 F2 D2 | G4) E4 D8 | %435
w: ne Do- mi-|ni,||in no-|mi- ne Do- mi-|ni, in no- mi-|ne Do\- * * *|* mi- ni,|
 z4 G4 F4 E4 | (A6 G2 F2 E2 F2 G2 | A8) (G4 F2 E2 | D2 E2 F2 EF G4) ^F4 | (G6 ^FE D8 | G16) |] %441
w: in no- mi-|ne * * * * *|* Do\- * *|* * * * * * mi-|ni. * * *||
[M:3/1][K:treble-8] x8 z16 | G8 A8 c8 | B8 (A4 B4 c4 B4 | d8) e8 d4 G4 | A8 c8 (B8 | %446
w: |O- san- na|in ex\- * * *|* cel- sis, O-|san- na in|
 A8) G4 (A8 F4 | A4 B4) c8 z8 | c8 d8 f8 | e8 d8 f8 | e8 z8 c8- | c8 d8 f8 | e8 c8 (A8- | %453
w: * ex- cel\- *|* * sis,|O- san- na|in ex- cel-|sis, O\-|* san- na|in ex- cel\-|
 A4 B4 c4 B4 d8) | G8 G8 A8 | c8 B4 B4 A8 | G12 E8 F4- | F4 E4 G8 D8 | (E4 C4 G8) E4 F4- | %459
w: |sis, O- san-|na in ex- cel-|sis, O- san\-|* na in ex-|cel\- * * sis, O\-|
 F4 E8 D4 E4 E4 | F8 E8 G8 | A8 c8 B8 | G4 (A8 _B4 A4 F4 | c8 B8 c8- | c8 d16) || c8 c8 | %466
w: * san- na in ex-|cel- sis, O-|san- na in|ex- cel\- * * *|||sis, O-|
 d4 f4 e4 d4 | c4 B4 z4 G4- | G4 A4 c4 B4 | (c6 B2 A4) G4 | G4 G4 A4 G4 | E4 E4 F4 E4 | %472
w: san- na in ex-|cel- sis, O\-|* san- na in|ex\- * * cel-|sis, O- san- na|in ex- cel- sis,|
 z2 G2 A4 c4 B4 | c4 (A8 G2 F2 | G8) d8 | z4 G4 G4 G4 | c4 A4 (d6 c2 | B8 A8) | G4 B4 c4 c4 | %479
w: O- san- na in|ex- cel\- * *|* sis,|O- san- na|in ex- cel\- *||sis, in ex- cel-|
 B16 |] z8 G8- | G16 | (A8 c8) | (B8 A6 G2 | A8) G8 | z4 (d6 c2 A2 B2 | c4 B2 A2 B4) G4 | %487
w: sis.|A\-||gnus *|De\- * *|* i,|A\- * * *|* * * * gnus|
 (A6 B2 c2 B2 A2 G2 | A6 GA B2 G2 d4- | d2 c2 c8 B4) | c8 z4 c4 | c8 B4 c4- | c4 G8 G4 | A8 G8 | %494
w: De\- * * * * *|||i, qui|tol- lis pec\-|* ca ta|mun- di,|
 z4 c4 c8 | B4 c4 c8 | (d6 B2 e8) | d8 c8 | z4 c4 c4 c4 | B4 (G4 d6 cB) | A4 d4 c4 c4 | G8 _B8- | %502
w: qui tol-|lis pec- ca-|ta * *|mun- di,|mi- se- re-|re no\- * * *|bis, mi- se- re-|re no\-|
 B8 A8 | z4 c4 c4 c4 | (G6 A2 B2 c2 d2 G2 | A4) (c6 d2 e2 c2 | d6 c2 B4 A2 G2 | A8) G8 | %508
w: * bis,|mi- se- re-|re * * * * *|* no\- * * *||* bis,|
 z4 d4 d4 d4 | (A2 B2 c2 d2 c4) c4 | B8 z4 G4 | A4 B4 c4 c4 | d4 e8 c4 | B4 c4 A8 | G16 |] %515
w: mi- se- re-|re * * * * no-|bis, mi-|se- re- re no-|bis, mi- se-|re- re no-|bis.|
V:4
 G,8 E,4 C,4 | (G,6 F,E, D,2 E,2 F,4) | (C,2 D,2 E,2 F,2 G,2 F,2 D,2 E,2 | F,2 G,2 A,2 B,2 C4 B,4 | %4
w: Ky- ri- e|e\- * * * * *|lei\- * * * * * * *||
 A,8) G,8- | G,8 z4 C,4 | G,4 A,4 G,4 (D,4- | D,2 E,2 F,4 G,4 E,4) | D,8 z4 G,4 | %9
w: * son,|* Ky-|ri- e e- lei\-||son, Ky-|
 E,4 C,4 (G,6 F,E, | D,2 E,2 F,2 G,2 A,2 G,2 E,2 F,2 | G,2 F,2 D,2 E,2 F,2 G,2 A,2 B,2 | %12
w: ri- e e\- * *|||
 C4 B,4) A,8 | G,16 | C,8 G,4 A,4 | (G,4 ^F,4 G,4 D,4) | (E,4 C,4 D,8) | G,,16 || z8 G,8- | %19
w: * * lei-|son,|Ky- ri- e|e\- * * *|lei\- * *|son.|Chri\-|
 G,4 C,4 (G,8 | A,8 (D,6 E,2 | F,8) C,4 G,4 | A,4 C8 B,4 | A,6 G,F, E,4 G,4 | F,6 E,D,) C,4 G,4 | %25
w: * ste e\-|* lei\- *|* son, e-|lei\- * *||* * * son, Chri-|
 A,4 (C8 B,4) | (A,6 G,F, E,6 F,2 | G,4 F,4 A,8) | G,4 G,4 A,4 (C4- | C4 B,4) A,8 | %30
w: ste e\- *|lei\- * * * *||son, Chri- ste e\-|* * lei-|
 G,4 F,4 C,4 D,4 | (G,6 F,2 E,8) | D,16 || z8 z4 G,4 | G,4 G,4 (D,6 E,2 | F,4) F,4 C,8 | %36
w: son, Chri- ste e-|lei\- * *|son.|Ky-|ri- e e\- *|* lei- son,|
 z4 G,4 G,4 G,4 | (D,6 E,2 F,4) F,4 | (C,6 D,2 E,2 F,2 G,4- | G,2 F,E, D,2) E,2 (F,4 A,4) | %40
w: Ky- ri- e|e\- * * lei-|son, * * * *|* * * * e- lei\- *|
 G,8 z4 A,4 | A,4 A,4 (E,6 F,2 | G,4 G,4 (D,2 E,2 F,2 G,2 | A,4) A,,6 B,,2 C,2 D,2 | %44
w: son, Ky-|ri- e e\- *|* lei- son, * * *|* Ky\- * * *|
 E,2 D,2 E,2 F,2 G,4) D,4 | F,4 (G,4 D,4 G,4) | (F,4 C,4 G,4 D,4 | E,8 D,8 | z4 G,4 G,4 G,4 | %49
w: * * * * * ri-|e e\- * *|lei- * * *|* son,|Ky- ri- e|
 (D,6 E,2 F,4) F,4 | C,6 D,2 E,2 D,2 E,2 F,2 | G,8 G,8 | D,4 G,4 F,4 (A,4- | A,4 G,2 F,2 E,4 F,4 | %54
w: e\- * * lei-|son, * * * * *|* Ky-|ri- e e- lei\-||
 G,4 C,4 D,8) | G,,16 |] x24 || G,6 G,2 E,4 C,4 | G,6 F,E, D,4) F,4 | (C,2 D,2 E,2 F,2 G,4) D,4 | %60
w: |son.||Et in ter- ra|pax * * * ho-|mi\- * * * * ni-|
 G,4 G,4 (C,2 D,2 E,2 F,2 | G,4) A,4 G,4 ^F,4 | G,4 D,4 G,4 E,4 | C,4 D,4 G,,8 | G,8 F,8 | %65
w: bus bo- nae * * *|* vo- lun- ta-|tis, bo- nae vo-|lun- ta- tis,|lau- da-|
 A,8 G,8 | z4 D,4 A,4 ^F,4- | F,2 G,2 E,4 D,8- | D,8 C,8- | C,4 C,4 F,8 | D,8 A,8 | %71
w: mus- te,|be- ne- di\-|* ci- mus te,|* a\-|* do- ra-|mus te,|
 z4 A,4 G,4 A,4 | F,4 G,4 D,8 | z4 E,8 E,4 | C,16 | F,8 D,4 C,4 | F,8 C,4 G,4 | A,4 C8 B,4 | %78
w: glo- ri- fi-|ca- mus te.|Gra- ti-|as|a- gi- mus|ti- bi pro-|pter ma- gnam|
 (A,6 G,F, E,4) G,4 | F,4 F,4 C,4 G,4 | A,4 C8 B,4 | A,8 G,4 D,4 | (E,6 F,2 G,8) | C,16- | C,8 z8 | %85
w: glo\- * * * ri-|am tu- am, pro-|pter ma- gnam|glo- ri- am|tu\- * *|am.||
 z16 | z16 | z8 z4 G,4- | G,4 E,4 (A,6 G,2 | F,8) (C,6 D,2 | E,4) F,4 G,4 E,4 | D,8 z4 C,4- | %92
w: ||De\-|* us Pa\- *|* ter *|* o- mni- po-|tens. Do\-|
 C,2 C,2 C,4 G,8 | (D,6 E,2 F,2 G,2 A,4) | G,4 D,4 E,4 C,4 | G,8 F,8- | F,8 _B,,8 | (C,8 G,,8) | %98
w: * mi- ne Fi-|li * * * *|u- ni- ge- ni-|te Je\-|* su|Chri\- *|
 D,16 || z16 | z16 | z16 | z16 | z16 | z16 | z16 | z16 | z16 | z16 | z16 | z16 | z16 | z16 | z16 | %114
w: ste.||||||||||||||||
 z16 | z16 | z16 | z16 | z16 | z16 | z16 || G,8 E,4 C,4 | F,4 D,4 (C,2 D,2 E,2 F,2 | G,8) D,8 | %124
w: |||||||Qui tol- lis|pec- ca- ta * * *|* mun-|
 E,4 C,4 G,4 F,4 | G,4 A,4 G,4 D,4- | D,4 F,4 C,4 E,4 | D,8 G,,8 | z4 C,4 C,8 | F,4 A,4 G,4 D,4 | %130
w: di, mi- se- re-|re no- bis, mi\-|* se- re- re|no- bis.|Qui tol-|lis pec- ca- ta|
 G,8 D,8 | G,12 G,4 | G,8 C,8- | C,8 C,8 | _B,,8 B,,8 | C,8 G,,8 | D,8 A,,8 | z4 A,4 G,8 | %138
w: mun- di,|su- sci-|pe de\-|* pre-|ca- ti-|o- nem|no- stram.|Qui se-|
 C,8 F,8 | A,6 A,2 E,8 | A,,8 D,8 | G,,16 | C,8 D,8 | A,,8 E,8- | E,8 A,,8 | D,8 D,4 E,4- | %146
w: des ad|de- xte- ram|Pa- tris,|mi-|se- re-|re no\-|* bis.|Quo- ni- am|
 E,4 C,8 F,4- | F,4 D,4 (G,6 F,2 | G,2 E,2 F,2 G,2 F,2 E,2 D,2 C,2 | D,8) C,8 | z16 | z16 | %152
w: * tu so\-|* lus san\- *||* ctus,|||
 z8 G,8 | A,8 F,4 F,4 | (A,6 B,2 C4) C4 | G,16 | A,16 | D,8 (G,6 F,2 | E,6 D,2 C,8) | %159
w: tu|so- lus al-|tis\- * * si-|mus,|Je-|su Chri\- *||
 D,4 D,4 G,8- | G,16 | G,8 (D,6 E,2 | F,4) A,4 G,8 | z4 A,4 A,4 A,4 | (E,2 C,2 E,2 F,2 G,4) G,4 | %165
w: ste, cum san\-||cto Spi\- *|* ri- tu,|in glo- ri-|a * * * * De-|
 D,8 z4 A,4 | A,4 A,4 (E,6 F,2 | G,4 G,4 D,8 | z4 A,4 A,4 A,4 | (E,6 F,2 G,4) G,4 | %170
w: i, in|glo- ri- a *|* De- i,|in glo- ri-|a * * De-|
 D,4 z2 D,2 D,4 D,4 | A,,6 B,,2 C,4) C,4 | G,,4 G,4 G,4 G,4 | (D,6 E,2 F,4) F,4 | C,8 (E,6 F,2 | %175
w: i, in glo- ri-|a * * De-|i, in glo- ri-|a * * De-|i Pa\- *|
 G,8) D,4 G,4 | F,4 C,4 G,4 D,4 | E,8 D,8 | G,,16 |] x16 || G,8 E,4 C,4 | %181
w: * tris, A-|men, De- i Pa-|tris, A-|men.||Pa- trem o-|
 G,4 G,4 (D,2 E,2 F,2 G,2 | A,2 B,2 C4) G,8 | z4 D,4 G,4 G,4 | (F,2 G,2 A,2 B,2 C8) | C8 G,8 | %186
w: mni- po- ten\- * * *|* * * tem,|fa- cto- rem|coe\- * * * *|li et|
 A,8 G,8- | G,8 C,6 C,2 | C,4 C,4 G,4 F,4- | F,4 G,4 G,8 | z16 | z8 G,,6 G,,2 | A,,4 B,,4 C,4 D,4 | %193
w: ter- rae,|* vi- si-|bi- li- um o\-|* mni- um||et in-|vi- si- bi- li-|
 G,,4 G,8 G,4 | F,4 D,4 F,8- | F,4 E,4 D,8 | D,8 C,8 | (G,8 A,8) | D,4 D,6 D,2 G,4 | %199
w: um. Et in|u- num Do\-|* mi- num|Je- sum|Chri\- *|stum Fi- li- um|
 F,4 D,4 G,4 ^F,4 | G,4 E,4 D,8 | z4 C,8 C,4 | C,8 B,,8 | C,8 D,8 | A,,8 A,,4 A,,4- | %205
w: De- i u- ni-|ge- ni- tum,|et ex|Pa- tre|na- tum|an- te o\-|
 A,,4 D,4 C,4 F,4- | F,4 C,4 G,8- | G,8 z8 | z16 | z8 z4 C,4 | D,4 C,4 B,,4 C,4 | G,,4 C,8 C,4 | %212
w: * mni- a sae\-|* cu- la,|||lu-|men de lu- mi-|ne, De- um|
 F,8 (C,2 D,2 E,2 F,2 | G,8) z4 E,4 | F,4 E,4 D,4 C,4 | z4 E,4 F,4 E,4 | D,4 C,4 z8 | %217
w: ve- rum * * *|* de|De- o ve- ro,|de- De- o|ve- ro,|
 C,6 C,2 C,4 C,4 | F,8 C,4 G,4 | A,4 C8 B,4 | (A,6 G,F, E,4) G,4 | (F,6 G,2 A,4) G,4 | %222
w: ge- ni- tum non|fa- ctum, con-|sub- stan- ti-|a\- * * * lem|Pa\- * * tri,|
 z4 D,4 E,4 G,4- | G,4 F,4 C,4 E,4 | D,8 G,,4 C,4- | C,4 G,,4 C,4 C,4 | G,,4 (G,6 F,2 E,2 D,2 | %227
w: con- sub- stan\-|* ti- a- lem|Pa- tri, per|* quem o- mni-|a fa\- * * *|
 C,4) C,4 D,8 | z4 C,4 F,4 _B,,4 | F,4 G,2 D,2 G,4 z2 C,2 | F,4 _B,,4 F,4 G,2 D,2 | G,4 C,4 F,8 | %232
w: * cta sunt.|Qui pro- pter|nos ho- mi- nes, et|pro- pter no- stram sa-|lu- tem de-|
 C,4 D,4 C,4 G,4 | A,8 z4 D,4 | C,8 C,4 C,4 | C16 | G,16 || C,16 | G,8 A,8 | G,8 D,8 | G,16 | %241
w: scen- dit de coe-|lis, de-|scen- dit de|coe-|lis.|Et|in- car-|na- tus|est|
 C,8 G,8- | G,4 F,4 D,8 | E,16 | E,16 | z4 D,8 A,,4 | D,8 A,,4 D,4- | D,4 G,,4 C,8 | _B,,16 | %249
w: de Spi\-|* ri- tu|san-|cto|ex Ma-|ri- a Vir\-|* gi- ne,|et|
 F,16 | D,16 | A,,16 | C,16 | G,,16 || z8 G,,8- | G,,4 A,,4 B,,4 C,4 | D,6 D,2 E,4 B,,4 | %257
w: ho-|mo|fa-|ctus|est.|Cru\-|* ci- fi- xus|e- ti- am pro|
 C,8 G,,8 | z4 B,,4 D,6 D,2 | A,,4 B,,4 C,8 | G,,4 E,,4 G,,6 G,,2 | D,,8 E,,8 | F,,8 E,,8 | %263
w: no- bis,|sub Pon- ti-|o Pi- la-|to, sub Pon- ti-|o Pi-|la- to.|
 z4 (G,,6 A,,2 B,,2 C,2 | D,4) A,,8 (F,,4- | F,,2 G,,2 A,,2 B,,2 C,4) A,,4 | _B,,4 G,,4 D,,8 | %267
w: Pas\- * * *|* sus et|* * * * * se-|pul- tus est,|
 (G,,6 A,,2 B,,2 C,2 D,4) | B,,4 (C,6 B,,2 A,,2 G,,2 | F,,8) (D,,6 E,,2) | (F,,4 G,,4) A,,8 | %271
w: pas\- * * * *|sus et * * *|* se\- *|pul\- * tus|
 G,,16 | z16 | z16 | z16 | z16 | z16 | z16 | z16 | z16 | z16 | z16 | z16 | z16 | z16 | z16 | z16 | %287
w: est.||||||||||||||||
 z16 | z16 | z16 | z16 | z16 | z16 | z16 | z16 | z16 | z16 | z16 | z16 || C,4 C,2 C,2 G,4 C,4 | %300
w: ||||||||||||Et i- te- rum ven-|
 F,4 A,4 G,4 D,4 | E,2 E,2 C,4 G,4 ^F,4 | G,4 D,4 (C,2 D,2 E,2 F,2 | G,2 A,2 B,2 C2 A,4) G,4 | %304
w: tu- rus est cum|glo- ri- a, ju- di-|ca- re vi\- * * *|* * * * * vos,|
 z16 | z4 (G,,2 A,,2 B,,2 C,2 D,2 E,2 | F,2 G,2 A,4) G,8 | (C,16 | D,16) | _B,,12 B,,4 | %310
w: |vi- * * * * *|* * * vos|et||mor- tu-|
 [F,,F,]16 | z8 C,8- | C,4 A,,4 D,8 | (C,6 B,,A,, G,,4) D,4 | (D,2 C,2 B,,2 A,,2 G,,4) A,,4 | %315
w: os:|cu\-|* ius re-|gni * * * non|e\- * * * * rit|
 (B,,6 C,2 D,8) | G,8 C,4 C,4 | C,6 C,2 C,8 | G,4 G,4 G,6 G,2 | G,8 D,4 D,4 | D,4 D,4 F,8 | %321
w: fi\- * *|nis. Et in|Spi- ri- tum|san- ctum Do- mi-|num, et vi-|vi- fi- can-|
 C,8 E,4 E,4 | E,4 E,4 G,4 G,4 | G,8 D,4 D,4 | (F,6 E,2 D,8) | C,8 z4 F,4- | F,4 C,4 D,8 | C,8 z8 | %328
w: tem, qui ex|Pa- tre Fi- li-|o- que pro-|ce\- * *|dit, qui|* cum Pa-|tre|
 z4 F,4 G,4 E,4 | D,4 F,8 F,4 | _B,,4 F,4 C,8 | D,8 z4 C,4 | F,4 D,4 G,4 F,4 | G,8 D,8 | %334
w: et Fi- li-|o si- mul|a- do- ra-|tur et|con- glo- ri- fi-|ca- tur,|
 z4 G,8 C,4 | C,4 D,4 E,4 C,4- | C,4 F,,4 C,8 | G,,16 ||[M:3/1] C,8 F,4 A,4 G,8 | F,8 C,8 G,4 A,4 | %340
w: qui lo-|cu- tus est per|* Pro- phe-|tas.|Et u- nam san-|ctam ca- tho- li-|
[M:3/1] G,8 C,8 C,4 C,4 | A,,4 A,,4 E,8 C,8 | D,16 G,,8 | C,24 || F,8 D,4 F,4 | %345
w: cam et a- po-|sto- li- cam Ec-|cle- si-|am.|Con- fi- te-|
 (C,6 B,,A,, G,,4) C,4 | D,4 G,,4 A,,8 | G,,4 G,,4 C,4 C,4- | C,4 A,,4 E,8 | D,8 E,4 C,4 | %350
w: or * * * u-|num ba- pti-|sma in re- mis\-|* si- o-|nem pec- ca-|
 G,8 C,8 | F,16 | _B,,16 | C,16 | C,16 | C,4 D,4 A,,4 D,4 | C,4 C,4 F,,8 | F,,8 E,,8- | %358
w: to- rum.|Et|ex-|pe-|cto|re- sur- re- cti-|o- nem mor-|tu- o\-|
 E,,8 G,,8- | G,,8 z4 C,4 | F,8 (C,2 D,2 E,2 F,2 | G,4) G,4 A,8 | G,8 z4 A,4 | A,8 E,4 C,4 | %364
w: * rum.|* Et|vi- tam * * *|* ven- tu-|ri, et|vi- tam ven-|
 G,8 D,4 D,4 | D,8 A,,4 A,,4 | A,8 E,8 | z4 G,4 G,8 | D,4 D,4 F,8 | C,4 C,4 C,8 | G,,4 G,,4 D,8 | %371
w: tu- ri, et|vi- tam ven-|tu- ri,|et vi-|tam ven- tu-|ri, et vi-|tam ven- tu-|
 A,,4 (A,,2 B,,2 C,2 D,2 E,2 F,2 | G,4) ^F,4 G,8 | D,16- | D,16 | G,,16 |] z8 (G,8- | %377
w: ri sae\- * * * * *|* cu- li,|A\-||men.|San\-|
 G,4 F,4 E,8) | D,8 (F,8- | F,4 E,4 D,8) | A,,8 (C,8- | C,4 B,,4 A,,8) | G,,8 (G,8 | %383
w: |ctus, San\-||ctus, San\-||ctus, San\-|
 D,6 E,2 F,2 G,2 A,2 B,2 | C4 B,4 A,8) | G,16 | C,12 C,4 | G,16 | D,16 | G,,16 | C,12 C,4 | C,16 | %392
w: ||ctus|Do- mi-|nus|De-|us|Sa- ba-|oth,|
 F,12 F,4 | _B,,16 | D,16 | A,,16 | (F,,16 | C,12 C,4 | G,,16 || C,16 | C,16 | C,16 | F,16 | C16 | %404
w: Do- mi-|nus|De-|us|Sa\-|* ba-|oth.|Ple-|ni|sunt|coe-|li|
 F,16 | _B,,16 | C,16 | A,,12 A,,4 | A,8 G,8- | G,8 C,8- | C,8 F,8- | F,4 F,4 D,8 | [A,,A,]16 | %413
w: et|ter-|ra|glo- ri-|a tu\-|* a,|* glo\-|* ri- a|tu-|
 D,16 |] z16 | z16 | z16 | z16 | z16 | z16 | z16 | z16 | z16 | z16 | z16 | z16 | z16 | z16 | z16 | %429
w: a.||||||||||||||||
 z16 | z16 | z16 | z16 | z16 | z16 | z16 | z16 | z16 | z16 | z16 | z16 |][M:3/1] x8 z16 | %442
w: |||||||||||||
 z8 z8 C,8 | D,8 F,8 E,8 | D,8 C,8 G,,8 | z8 C,8 D,8 | F,8 E,4 F,4 D,8- | D,8 C,4 C,4 F,8 | %448
w: O-|san- na in|ex- cel- sis,|O- san-|na in ex- cel\-|* sis, O- san-|
 A,8 G,4 G,4 F,8 | C,8 G,8 A,8 | C8 B,8 A,8- | A,8 G,8 F,8 | z8 C,8 D,8 | F,8 E,8 D,8 | %454
w: na in ex- cel-|sis, O san-|na in ex\-|* cel- sis,|O- san-|na in ex-|
 C,8 G,,8 z8 | z8 G,,8 A,,8 | C,8 B,,4 C,4 A,,8- | A,,8 G,,8 z8 | z8 G,,8 A,,8 | C,8 B,,8 C,8 | %460
w: cel- sis,|O- san-|na in ex- cel\-|* sis,|O- san-|na in ex-|
 F,,8 A,,8) G,,8 | D,8 E,8 G,8 | E,4 F,4 D,16 | C,8 G,8 A,8- | A,8 G,16 || C,4 C,4 F,4 A,4 | %466
w: cel\- * sis,|O- san- na|in ex- cel-|sis, in ex\-|* cel-|sis, O- san- na|
 G,4 F,4 C,4 D,4 | z4 G,,4 A,,4 C,4 | B,,2 C,2 A,,8 G,,4 | z8 z4 B,,4 | C,4 E,4 D,4 B,,4 | %471
w: in ex- cel- sis,|O- san- na|in ex- cel- sis,|O-|san- na in ex-|
 (C,6 B,,2 A,,8) | G,,4 D,4 E,4 G,4 | E,4 F,4 D,8 | C,8 z4 G,,4 | A,,4 C,4 B,,4 C,4 | %476
w: cel\- * *|sis, O- san- na|in ex- cel-|sis, O-|san- na in ex-|
 A,,8 G,,4 D,4 | E,4 B,,4 C,4 D,4 | (E,8 C,8) | G,16 |] G,12 F,4 | (E,4 D,2 C,2 E,8 | D,8) (C,8 | %483
w: cel- sis, O-|san- na in ex-|cel\- *|sis.|A- gnus|De\- * * *|* i,|
 G,,8) z8 | z16 | D,16 | (E,8 G,8) | (F,8 E,8) | D,8 (G,6 F,2 | E,4) C,4 G,8 | C,16- | C,8 z4 C,4 | %492
w: ||A-|gnus *|De\- *|i, A\- *|* gnus De-|i,|* qui|
 C,8 B,,4 C,4 | (A,,2 B,,2 C,2 D,2 E,4) C,4 | F,8 C,4 C,4 | G,4 C,4 F,4 A,4 | %496
w: tol- lis pec-|ca\- * * * * ta|mun- di, qui|tol- lis pec- ca-|
 (G,2 A,2 B,2 G,2) (C4 C,4) | G,8 z4 A,4 | A,4 A,4 E,4 C,4 | G,8 z4 D,4 | D,4 D,4 (A,,6 B,,2 | %501
w: ta * * * mun\- *|di, mi-|se- re- re no-|bis, mi-|se- re- re *|
 C,4) C,4 G,,4 G,4 | G,4 G,4 (D,6 E,2 | F,4) (F,4 C,6 D,2 | E,2 D,2 E,2 F,2 G,6 F,E, | %505
w: * no- bis, mi-|se- re- re *|* no\- * *||
 D,4) C,4 F,4 C,4 | G,4 D,4 E,8 | D,8 z4 G,4 | G,4 G,4 D,8 | z4 A,4 A,4 A,4 | (E,6 F,2 G,6 F,E, | %511
w: * bis, mi- se-|re- re no-|bis, mi-|se- re- re,|mi- se- re-|re * * * *|
 D,4) G,4 F,4 A,4 | G,4 C,4 E,4 (F,4 | G,4 C,4 D,8) | G,,16 |] %515
w: * no- bis, mi-|se- re- re no\-||bis.|

